components/Common/Svg/svgs/mobileDevelopment.svg

<svg width="40" height="40" viewBox="0 0 40 40" fill="none" xmlns="http://www.w3.org/2000/svg">
<path d="M19.447 28.8235C19.447 27.8489 18.7009 27.0588 17.7804 27.0588C16.8599 27.0588 16.1137 27.8489 16.1137 28.8235C16.1137 29.7982 16.8599 30.5882 17.7804 30.5882C18.7009 30.5882 19.447 29.7982 19.447 28.8235Z" fill="#161616"/>
<path fill-rule="evenodd" clip-rule="evenodd" d="M25.25 29.9995C25.25 27.3762 27.3766 25.2495 30 25.2495C32.6234 25.2495 34.75 27.3762 34.75 29.9995C34.75 32.6229 32.6234 34.7495 30 34.7495C27.3766 34.7495 25.25 32.6229 25.25 29.9995ZM30 27.2495C28.4812 27.2495 27.25 28.4807 27.25 29.9995C27.25 31.5183 28.4812 32.7495 30 32.7495C31.5188 32.7495 32.75 31.5183 32.75 29.9995C32.75 28.4807 31.5188 27.2495 30 27.2495Z" fill="#161616"/>
<path fill-rule="evenodd" clip-rule="evenodd" d="M23.5715 35.1175H11.1128C9.28018 35.1175 7.89062 33.5618 7.89062 31.7646V5.88224C7.89062 4.08508 9.28018 2.5293 11.1128 2.5293H24.4462C26.2788 2.5293 27.6684 4.08508 27.6684 5.88224V21.2068C28.0461 21.1666 28.4238 21.2975 28.8016 21.5997L30.0016 22.4997H30.2016L31.4016 21.5997C31.8016 21.2997 32.4016 21.1997 32.9016 21.2997L34.4016 21.8997C34.9016 22.0997 35.2016 22.5997 35.3016 23.0997L35.5016 24.5997L35.6016 24.6997L37.1016 24.8997C37.6016 24.9997 38.1016 25.2997 38.3016 25.7997C38.3682 25.9664 38.446 26.133 38.5238 26.2997C38.6793 26.633 38.8349 26.9664 38.9016 27.2997C39.1016 27.7997 39.0016 28.2997 38.6016 28.7997L37.7016 29.9997V30.1997L38.6016 31.3997C38.9016 31.7997 39.0016 32.3997 38.9016 32.8997L38.3016 34.3997C38.1016 34.8997 37.6016 35.1997 37.1016 35.2997L35.6016 35.4997L35.5016 35.5997L35.3016 37.0997C35.2016 37.5997 34.9016 38.0997 34.4016 38.2997C34.2349 38.3664 34.0682 38.4441 33.9016 38.5219C33.5682 38.6775 33.2349 38.833 32.9016 38.8997C32.4016 39.0997 31.9016 38.9997 31.4016 38.5997L30.2016 37.6997H30.0016L28.8016 38.5997C28.7329 38.6169 28.6672 38.634 28.6035 38.6507C28.2957 38.7311 28.0329 38.7997 27.7016 38.7997C27.5016 38.7997 27.4016 38.7997 27.2016 38.6997L25.7016 38.0997C25.2016 37.8997 24.9016 37.3997 24.8016 36.8997L24.6016 35.3997L24.5016 35.2997L24.0016 35.1997H23.8016L23.5715 35.1175ZM21.3252 33.1175H11.1128C10.4909 33.1175 9.89062 32.5664 9.89062 31.7646V5.88224C9.89062 5.08041 10.4909 4.5293 11.1128 4.5293H24.4462C25.0681 4.5293 25.6684 5.08041 25.6684 5.88224V21.9624C25.248 22.1919 24.9923 22.6458 24.9016 23.0997L24.7016 24.5997L24.6016 24.6997L23.1016 24.8997C22.6016 24.9997 22.2016 25.2997 21.8016 25.6997L21.2016 27.1997C21.1016 27.6997 21.2016 28.2997 21.5016 28.6997L22.4016 29.7997V29.9997L21.5016 31.1997C21.1016 31.6997 21.0016 32.1997 21.2016 32.6997C21.2294 32.839 21.2728 32.9783 21.3252 33.1175ZM27.3016 36.5497C27.1766 36.4997 27.0516 36.4497 26.9016 36.3997L26.6016 34.7997C26.6016 34.5997 26.5016 34.3997 26.3016 34.1997L25.8016 33.6997C25.6016 33.4997 25.4016 33.3997 25.2016 33.3997L24.4016 33.2997L23.5016 32.9997C23.5016 32.7997 23.4016 32.5997 23.3016 32.3997L24.3016 31.0997C24.4016 30.8997 24.5016 30.5997 24.5016 30.3997V29.6997C24.5016 29.3997 24.4016 29.1997 24.3016 28.9997L23.3016 27.6997C23.4016 27.3997 23.5016 27.0997 23.6016 26.8997L25.2016 26.5997C25.5016 26.5997 25.7016 26.4997 25.8016 26.2997L26.3016 25.7997C26.5016 25.5997 26.6016 25.3997 26.6016 25.1997L26.9016 23.5997C26.9621 23.5694 27.0318 23.5392 27.108 23.5061C27.2832 23.43 27.4924 23.3392 27.7016 23.1997L29.0016 24.1997C29.2016 24.3997 29.4016 24.4997 29.6016 24.3997H30.3016C30.5628 24.4868 30.7482 24.4222 30.9899 24.338C31.0257 24.3255 31.0628 24.3126 31.1016 24.2997L32.4016 23.2997C32.5516 23.3497 32.6766 23.3997 32.8016 23.4497C32.9266 23.4997 33.0516 23.5497 33.2016 23.5997L33.4016 25.1997C33.4016 25.3997 33.5016 25.5997 33.7016 25.7997C33.9016 25.9997 34.0016 26.0997 34.2016 26.3997C34.4016 26.5997 34.6016 26.6997 34.8016 26.6997L36.4016 26.8997C36.4516 27.0497 36.5016 27.1747 36.5516 27.2997C36.6016 27.4247 36.6516 27.5497 36.7016 27.6997L35.7016 28.9997C35.6016 29.1997 35.5016 29.4997 35.5016 29.6997V30.3997C35.5016 30.6997 35.6016 30.8997 35.7016 31.0997L36.7016 32.3997C36.6516 32.5497 36.6016 32.6747 36.5516 32.7997C36.5016 32.9247 36.4516 33.0497 36.4016 33.1997L34.8016 33.3997C34.6016 33.3997 34.4016 33.4997 34.2016 33.6997L33.7016 34.1997C33.5016 34.3997 33.4016 34.5997 33.4016 34.7997L33.2016 36.3997C33.0516 36.4497 32.9266 36.4997 32.8016 36.5497C32.6766 36.5997 32.5516 36.6497 32.4016 36.6997L31.1016 35.6997C30.9016 35.5997 30.6016 35.4997 30.4016 35.4997H29.7016C29.4016 35.4997 29.2016 35.5997 29.0016 35.6997L27.7016 36.6997C27.5516 36.6497 27.4266 36.5997 27.3016 36.5497Z" fill="#161616"/>
</svg>

<svg width="40" height="40" viewBox="0 0 40 40" fill="none" xmlns="http://www.w3.org/2000/svg"><path d="M19.447 28.823c0-.974-.746-1.764-1.667-1.764-.92 0-1.666.79-1.666 1.764 0 .975.746 1.765 1.666 1.765.92 0 1.667-.79 1.667-1.765Z" fill="#161616"/><path fill-rule="evenodd" clip-rule="evenodd" d="M25.25 30a4.75 4.75 0 1 1 9.5 0 4.75 4.75 0 0 1-9.5 0ZM30 27.25a2.75 2.75 0 1 0 0 5.5 2.75 2.75 0 0 0 0-5.5Z" fill="#161616"/><path fill-rule="evenodd" clip-rule="evenodd" d="M23.572 35.117h-12.46c-1.832 0-3.221-1.555-3.221-3.352V5.882c0-1.797 1.39-3.353 3.222-3.353h13.333c1.833 0 3.222 1.556 3.222 3.353v15.325c.378-.04.756.09 1.134.393l1.2.9h.2l1.2-.9c.4-.3 1-.4 1.5-.3l1.5.6c.5.2.8.7.9 1.2l.2 1.5.1.1 1.5.2c.5.1 1 .4 1.2.9.066.166.144.333.222.5.155.333.31.666.378 1 .2.5.1 1-.3 1.5l-.9 1.2v.2l.9 1.2c.3.4.4 1 .3 1.5l-.6 1.5c-.2.5-.7.8-1.2.9l-1.5.2-.1.1-.2 1.5c-.1.5-.4 1-.9 1.2a9.8 9.8 0 0 0-.5.222c-.334.156-.667.311-1 .378-.5.2-1 .1-1.5-.3l-1.2-.9h-.2l-1.2.9a18.29 18.29 0 0 0-.198.05c-.308.081-.571.15-.902.15-.2 0-.3 0-.5-.1l-1.5-.6c-.5-.2-.8-.7-.9-1.2l-.2-1.5-.1-.1-.5-.1h-.2l-.23-.083Zm-2.247-2H11.113c-.622 0-1.222-.55-1.222-1.352V5.882c0-.802.6-1.353 1.222-1.353h13.333c.622 0 1.222.551 1.222 1.353v16.08c-.42.23-.676.684-.766 1.138l-.2 1.5-.1.1-1.5.2c-.5.1-.9.4-1.3.8l-.6 1.5c-.1.5 0 1.1.3 1.5l.9 1.1v.2l-.9 1.2c-.4.5-.5 1-.3 1.5.027.139.07.278.123.417Zm5.977 3.433a6.92 6.92 0 0 0-.4-.15l-.3-1.6c0-.2-.1-.4-.3-.6l-.5-.5c-.2-.2-.4-.3-.6-.3l-.8-.1-.9-.3c0-.2-.1-.4-.2-.6l1-1.3c.1-.2.2-.5.2-.7v-.7c0-.3-.1-.5-.2-.7l-1-1.3c.1-.3.2-.6.3-.8l1.6-.3c.3 0 .5-.1.6-.3l.5-.5c.2-.2.3-.4.3-.6l.3-1.6c.06-.03.13-.06.206-.094.175-.076.384-.167.594-.306l1.3 1c.2.2.4.3.6.2h.7c.26.087.446.022.688-.062l.112-.038 1.3-1c.15.05.275.1.4.15.125.05.25.1.4.15l.2 1.6c0 .2.1.4.3.6.2.2.3.3.5.6.2.2.4.3.6.3l1.6.2c.05.15.1.275.15.4.05.125.1.25.15.4l-1 1.3c-.1.2-.2.5-.2.7v.7c0 .3.1.5.2.7l1 1.3c-.05.15-.1.275-.15.4-.05.125-.1.25-.15.4l-1.6.2c-.2 0-.4.1-.6.3l-.5.5c-.2.2-.3.4-.3.6l-.2 1.6c-.15.05-.275.1-.4.15-.125.05-.25.1-.4.15l-1.3-1c-.2-.1-.5-.2-.7-.2h-.7c-.3 0-.5.1-.7.2l-1.3 1c-.15-.05-.275-.1-.4-.15Z" fill="#161616"/></svg>
